X:1
T:New South WAles
M:2/4
L:1/4
K:C
 e3/2 f/2| g3/2 e/2| d c| c2| c3/2 d/2| e c| A/2 G3/2| G3/2 G/2| E/2 G3/2|\
 G c| A/2 G3/2| G3/2 G/2| c3/2 d/2| e c| A B| c2-| c2|
